X:1
T:Reo, CM
T:Reo, CM
T:Lowell Mason, 1841
T:Public Domain Courtesy of the Cyber Hymnal™
C:Lowell Mason, 1841
Z:Public Domain
Z:Courtesy of the Cyber Hymnal™
%%score ( 1 2 ) ( 3 4 )
L:1/8
Q:1/4=107
M:3/4
K:G
V:1 treble 
V:2 treble 
V:3 bass 
V:4 bass 
V:1
 [DG]2 [DG]2 [FA]2 | [GB]>[EA] [DG]2 [DF]2 | [DG]4 D2 | [CE]4 [EG]2 | [Ec]4 [CE]2 | %5
 [CE]2 [B,D]2 z2 | [DF]2 [DF]2 [DG]2 | [DA]4 [DG]2 | [DG][DF] [DF]4 | [DG]2 [DG]2 [FA]2 | %10
 [GB]4 [FA]2 | [FA][EG] [EG]2 D2 | [CE] (c/A/) [DG]2 [DF]2 | [DG]4 z2 |] %14
V:2
 x6 | x6 | x4 D2 | x6 | x6 | x6 | x6 | x6 | x6 | x6 | x6 | x4 D2 | x E x4 | x6 |] %14
V:3
 [G,B,]2 [G,B,]2 [D,D]2 | [G,D]>[C,C] [D,B,]2 [D,A,]2 | [G,,G,B,]4 [B,,G,]2 | [C,G,]4 [C,G,]2 | %4
 [C,G,]4 [E,G,]2 | G,4 z2 | [D,A,]2 [D,A,]2 [D,B,]2 | [D,C]4 [D,B,]2 | [D,B,][D,A,] [D,A,]4 | %9
 [G,B,]2 [G,B,]2 [D,D]2 | [G,D]4 ([D,D][^D,C]) | [E,B,][E,B,] [E,B,]2 [B,,G,]2 | %12
 [C,G,] (G,/A,/) [D,B,]2 A,C | [G,,B,]4 z2 |] %14
V:4
 x6 | x6 | x6 | x6 | x6 | G,4 x2 | x6 | x6 | x6 | x6 | x6 | x6 | x C, x3/2 D,2 x/ | x6 |] %14

